X: 6524
T: Cat's Meow, The
R: jig
M: 6/8
K: Dmajor
|:"D"FA"d"d fe"d"f|af"d"e dB"d"A|"G"Bd"g"B BA"g"F|dA"g"F "A"E2 "a"E|
"D"FA"d"d fe"d"f|af"d"e dB"d"A|"G"Bd"g"e fd"g"B|1 "A"AF"a"E "D"DAG:|2 "A"AF"a"E "D"D2e||
|:"D"fd"d"B AF"d"A|DF"d"A de"d"f|"G"ge"g"f ge"g"d|"A"ce"a"d cB"a"A|
"D"fd"d"B AF"d"A|DF"d"A de"d"f|"G"ge"g"c "A"ag"a"e|1 ed"a"c "D"d2e:|2 ed"a"c "D"dAG||
|:"D"FA"d"d a2"d"a|ag"d"f ag"d"f|"A"Ac"a"e g2"e"g|gf"e"e gf"e"e|
"D"fe"d"f "G"gf"g"g|"D"ag"d"a "G"ba"g"g|"D"fa"d"a "G"ge"g"c|"A"ed"a"c "D"dAG:|

